src/images/icons/expenses/utilities.svg

<svg width="56" height="56" viewBox="0 0 56 56" fill="none" xmlns="http://www.w3.org/2000/svg">
<path d="M53.6881 0H2.31193C1.52336 0 0.878174 0.645189 0.878174 1.43375C0.878174 2.22232 1.52336 2.86751 2.31193 2.86751H5.40644V54.5304C5.40644 55.0561 5.69319 55.546 6.15916 55.7969C6.62513 56.0478 7.18669 56.0239 7.62876 55.7252L13.8536 51.5793L20.1024 55.7371C20.5803 56.0597 21.2136 56.0597 21.6915 55.7371L27.9164 51.5912L34.1651 55.7491C34.6431 56.0717 35.2763 56.0717 35.7542 55.7491L41.9791 51.6032L48.2279 55.761C48.4668 55.9164 48.7416 56 49.0164 56C49.2434 56 49.4824 55.9403 49.6975 55.8327C50.1634 55.5818 50.4502 55.092 50.4502 54.5662L50.4263 2.90335H53.6881C54.4766 2.90335 55.1218 2.25816 55.1218 1.4696C55.1218 0.681033 54.4766 0 53.6881 0ZM47.5946 51.8541L42.7796 48.652C42.3017 48.3294 41.6684 48.3294 41.1905 48.652L34.9656 52.8099L28.7169 48.652C28.239 48.3294 27.6057 48.3294 27.1278 48.652L20.9029 52.798L14.6541 48.652C14.1762 48.3294 13.543 48.3294 13.0651 48.652L8.27395 51.8421V2.85556H47.5827L47.5946 51.8541Z" fill="#071F41"/>
<path d="M14.8692 22.8924H29.8877C30.6763 22.8924 31.3215 22.2472 31.3215 21.4587C31.3215 20.6701 30.6763 20.0249 29.8877 20.0249H14.8692C14.0806 20.0249 13.4354 20.6701 13.4354 21.4587C13.4354 22.2472 14.0687 22.8924 14.8692 22.8924Z" fill="#071F41"/>
<path d="M14.8692 27.8748H26.1241C26.9127 27.8748 27.5579 27.2296 27.5579 26.4411C27.5579 25.6525 26.9127 25.0073 26.1241 25.0073H14.8692C14.0806 25.0073 13.4354 25.6525 13.4354 26.4411C13.4354 27.2296 14.0687 27.8748 14.8692 27.8748Z" fill="#071F41"/>
<path d="M37.3912 22.8924H41.1428C41.9314 22.8924 42.5766 22.2472 42.5766 21.4587C42.5766 20.6701 41.9314 20.0249 41.1428 20.0249H37.3912C36.6026 20.0249 35.9574 20.6701 35.9574 21.4587C35.9574 22.2472 36.5906 22.8924 37.3912 22.8924Z" fill="#071F41"/>
<path d="M37.3912 27.8748H41.1428C41.9314 27.8748 42.5766 27.2296 42.5766 26.4411C42.5766 25.6525 41.9314 25.0073 41.1428 25.0073H37.3912C36.6026 25.0073 35.9574 25.6525 35.9574 26.4411C35.9574 27.2296 36.5906 27.8748 37.3912 27.8748Z" fill="#071F41"/>
<path d="M14.8692 11.3865H29.8877C30.6763 11.3865 31.3215 10.7414 31.3215 9.9528C31.3215 9.16423 30.6763 8.51904 29.8877 8.51904H14.8692C14.0806 8.51904 13.4354 9.16423 13.4354 9.9528C13.4354 10.7414 14.0687 11.3865 14.8692 11.3865Z" fill="#071F41"/>
<path d="M14.8692 16.3568H26.1241C26.9127 16.3568 27.5579 15.7116 27.5579 14.923C27.5579 14.1344 26.9127 13.4893 26.1241 13.4893H14.8692C14.0806 13.4893 13.4354 14.1344 13.4354 14.923C13.4354 15.7116 14.0687 16.3568 14.8692 16.3568Z" fill="#071F41"/>
<path d="M37.3912 11.3865H41.1428C41.9314 11.3865 42.5766 10.7414 42.5766 9.9528C42.5766 9.16423 41.9314 8.51904 41.1428 8.51904H37.3912C36.6026 8.51904 35.9574 9.16423 35.9574 9.9528C35.9574 10.7414 36.5906 11.3865 37.3912 11.3865Z" fill="#071F41"/>
<path d="M37.3912 16.3568H41.1428C41.9314 16.3568 42.5766 15.7116 42.5766 14.923C42.5766 14.1344 41.9314 13.4893 41.1428 13.4893H37.3912C36.6026 13.4893 35.9574 14.1344 35.9574 14.923C35.9574 15.7116 36.5906 16.3568 37.3912 16.3568Z" fill="#071F41"/>
<path d="M14.8692 34.5413H29.8877C30.6763 34.5413 31.3215 33.8961 31.3215 33.1076C31.3215 32.319 30.6763 31.6738 29.8877 31.6738H14.8692C14.0806 31.6738 13.4354 32.319 13.4354 33.1076C13.4354 33.8961 14.0687 34.5413 14.8692 34.5413Z" fill="#071F41"/>
<path d="M14.8692 39.5116H26.1241C26.9127 39.5116 27.5579 38.8664 27.5579 38.0778C27.5579 37.2892 26.9127 36.644 26.1241 36.644H14.8692C14.0806 36.644 13.4354 37.2892 13.4354 38.0778C13.4354 38.8664 14.0687 39.5116 14.8692 39.5116Z" fill="#071F41"/>
<path d="M37.3912 34.5413H41.1428C41.9314 34.5413 42.5766 33.8961 42.5766 33.1076C42.5766 32.319 41.9314 31.6738 41.1428 31.6738H37.3912C36.6026 31.6738 35.9574 32.319 35.9574 33.1076C35.9574 33.8961 36.5906 34.5413 37.3912 34.5413Z" fill="#071F41"/>
<path d="M37.3912 39.5116H41.1428C41.9314 39.5116 42.5766 38.8664 42.5766 38.0778C42.5766 37.2892 41.9314 36.644 41.1428 36.644H37.3912C36.6026 36.644 35.9574 37.2892 35.9574 38.0778C35.9574 38.8664 36.5906 39.5116 37.3912 39.5116Z" fill="#071F41"/>
</svg>

<!-- Generated by IcoMoon.io -->
<svg version="1.1" xmlns="http://www.w3.org/2000/svg" width="56" height="56" viewBox="0 0 56 56">
<title>utilities</title>
<path d="M53.688 0h-51.376c-0.789 0-1.434 0.645-1.434 1.434s0.645 1.434 1.434 1.434h3.094v51.663c0 0.526 0.287 1.016 0.753 1.267s1.028 0.227 1.47-0.072l6.225-4.146 6.249 4.158c0.478 0.323 1.111 0.323 1.589 0l6.225-4.146 6.249 4.158c0.478 0.323 1.111 0.323 1.589 0l6.225-4.146 6.249 4.158c0.239 0.155 0.514 0.239 0.788 0.239 0.227 0 0.466-0.060 0.681-0.167 0.466-0.251 0.753-0.741 0.753-1.267l-0.024-51.663h3.262c0.788 0 1.434-0.645 1.434-1.434s-0.645-1.47-1.434-1.47zM47.595 51.854l-4.815-3.202c-0.478-0.323-1.111-0.323-1.589 0l-6.225 4.158-6.249-4.158c-0.478-0.323-1.111-0.323-1.589 0l-6.225 4.146-6.249-4.146c-0.478-0.323-1.111-0.323-1.589 0l-4.791 3.19v-48.987h39.309l0.012 48.999z"></path>
<path d="M14.869 22.892h15.019c0.789 0 1.434-0.645 1.434-1.434s-0.645-1.434-1.434-1.434h-15.019c-0.789 0-1.434 0.645-1.434 1.434s0.633 1.434 1.434 1.434z"></path>
<path d="M14.869 27.875h11.255c0.789 0 1.434-0.645 1.434-1.434s-0.645-1.434-1.434-1.434h-11.255c-0.789 0-1.434 0.645-1.434 1.434s0.633 1.434 1.434 1.434z"></path>
<path d="M37.391 22.892h3.752c0.789 0 1.434-0.645 1.434-1.434s-0.645-1.434-1.434-1.434h-3.752c-0.789 0-1.434 0.645-1.434 1.434s0.633 1.434 1.434 1.434z"></path>
<path d="M37.391 27.875h3.752c0.789 0 1.434-0.645 1.434-1.434s-0.645-1.434-1.434-1.434h-3.752c-0.789 0-1.434 0.645-1.434 1.434s0.633 1.434 1.434 1.434z"></path>
<path d="M14.869 11.386h15.019c0.789 0 1.434-0.645 1.434-1.434s-0.645-1.434-1.434-1.434h-15.019c-0.789 0-1.434 0.645-1.434 1.434s0.633 1.434 1.434 1.434z"></path>
<path d="M14.869 16.357h11.255c0.789 0 1.434-0.645 1.434-1.434s-0.645-1.434-1.434-1.434h-11.255c-0.789 0-1.434 0.645-1.434 1.434s0.633 1.434 1.434 1.434z"></path>
<path d="M37.391 11.386h3.752c0.789 0 1.434-0.645 1.434-1.434s-0.645-1.434-1.434-1.434h-3.752c-0.789 0-1.434 0.645-1.434 1.434s0.633 1.434 1.434 1.434z"></path>
<path d="M37.391 16.357h3.752c0.789 0 1.434-0.645 1.434-1.434s-0.645-1.434-1.434-1.434h-3.752c-0.789 0-1.434 0.645-1.434 1.434s0.633 1.434 1.434 1.434z"></path>
<path d="M14.869 34.541h15.019c0.789 0 1.434-0.645 1.434-1.434s-0.645-1.434-1.434-1.434h-15.019c-0.789 0-1.434 0.645-1.434 1.434s0.633 1.434 1.434 1.434z"></path>
<path d="M14.869 39.512h11.255c0.789 0 1.434-0.645 1.434-1.434s-0.645-1.434-1.434-1.434h-11.255c-0.789 0-1.434 0.645-1.434 1.434s0.633 1.434 1.434 1.434z"></path>
<path d="M37.391 34.541h3.752c0.789 0 1.434-0.645 1.434-1.434s-0.645-1.434-1.434-1.434h-3.752c-0.789 0-1.434 0.645-1.434 1.434s0.633 1.434 1.434 1.434z"></path>
<path d="M37.391 39.512h3.752c0.789 0 1.434-0.645 1.434-1.434s-0.645-1.434-1.434-1.434h-3.752c-0.789 0-1.434 0.645-1.434 1.434s0.633 1.434 1.434 1.434z"></path>
</svg>
